signal-5g.svg

<svg fill="currentColor" viewBox="0 0 24 24"><path d="M22 16.5v-6h-4.5v3H19v3h-3v-9h6v-3h-6a3 3 0 0 0-3 3v9a3 3 0 0 0 3 3h3a3 3 0 0 0 3-3m-12-12H3v9h4v3H3v3h5.5A1.5 1.5 0 0 0 10 18v-6a1.5 1.5 0 0 0-1.5-1.5H6v-3h4z"/></svg>

<svg  viewBox="0 0 24 24" fill="currentColor"><path  d="M22,16.5V10.5H17.5V13.5H19V16.5H16V7.5H22V4.5H16A3,3 0 0,0 13,7.5V16.5A3,3 0 0,0 16,19.5H19A3,3 0 0,0 22,16.5M10,4.5H3V12L3,13.5H7V16.5H3V19.5H8.5A1.5,1.5 0 0,0 10,18V12A1.5,1.5 0 0,0 8.5,10.5H6V7.5H10V4.5Z"/></svg>
